X:1
T:Lóg a lába
O:Magyar népdal
M:2/4
L:1/8
K:C
GG GA | G2 E2 | GG GA |G2 E2 |
w: Lóg a lá-ba, lóg a, nin-csen ne-ki dol-ga.
GGGA | G2 E2 | GFED | C2 C2 |]
w: Mert ha dol-ga vol-na a lá-ba nem lóg-na.
